X:318
T:Elegance
C:Dave Brown, c. 1986
N:For the dance "The Refined Company" by Hilary Herbert
L:1/4
M:2/2
R:Reel
S:Colin Hume's website,  colinhume.com  - chords can also be printed below the stave.
Q:1/2=102
%%MIDI gchord fHIg
%%MIDI program 73     Flute
%%MIDI chordprog 46   Orchestral Harp
%%MIDI bassprog 46    Orchestral Harp
K:Dm
P:A
"Dm"d2 f/e/d | "/"d3 A | "Dm"d2 f/e/d | "A7"^c3A | "Bb"d2 f/e/d | "Gm6"e2 g/f/e | "Dm"ab ag/f/ | "A7"Te4 |
"Dm"d2 f/e/d | "/"d3 A | "Gm6"e2 g/f/e | "/"e3 f | "C7"gb ag | "F"ab ag/f/ | "A7"Te3 d/^c/ | "Dm"d3 A |
P:B
"Dm"d2 f/e/d | "G7"d2 A=B | "C"c2 e/d/c | "F"c2 GA | "Bb"B2 d/c/B | "/"A3 G | "A7"A4- | "/"AA =B^c |
"Dm"dD FA | "/"dD FA/d/ | "Gm"eE Bd | "/"eB de/f/ | "C7"gb ag | "F"ab ag/f/ | "A7"Te3 d/^c/ | "Dm"d4 |]

